X:23
T:Jessica's
Z: id:dc-polka-18
M:2/4
L:1/8
K:A Major
ef/e/ ce|fe Bc|A>B cA|ec B2|!
ef/e/ ce|fe Bc|A>B cA|FA E2:|!
F>B AF|cB A2|ef/e/ ce|ag f2|!
ef/e/ ce|fe Bc|A>B cA|FA E2:|!

